X:1
T:Bluebell Polka, The
R:barndance
Z:id:hn-barndance-1
M:C|
L:1/8
K:G
(3Bdg | b2ba gfge | d2d2 B3G | FGAB c2e2 | ed^cd B2 (3Bdg |
b2ba gfge | d2d2 B3G | FGAB cdef | g2g2 g2 :|
K:D
|: B2 | A2A2 FAdf | a2a2 f4 | a2^ga =g2e2 | b2a2 ^g2a2 |
A2A2 FAdf | a2a2 f4 | a2^ga =g2e2 | d2f2 d2 :|
K:G
|: (3Bdg | b2b2 gfge | d2d2 B2G2 | FGAB c2e2 | ed^cd B2 (3Bdg |
b2b2 gfge | d2d2 B2G2 | FGAB cdef | g2g2 g2 :|
K:C
|: z2 | e2e2 efg2 | e2e2 efge | f2f2 fdBd | fefg fdBd |
e2e2 efg2 | e2e2 efge | fefg fdBd | c2e2 c2 :|
K:G
(3Bdg | b2ba gfge | d2d2 B3G | FGAB c2e2 | ed^cd B2 (3Bdg |
b2ba gfge | d2d2 B3G | FGAB cdef | g2g2 g2 :|
<end>
<start>
